X:1
T:Improvisation on Brahms
T:Improvisation on Brahms 
T:(From Piano Sonata No. 3 in f minor, Finale)
T:A Poliakoff
T:(c) Albert Poliakoff, 2020
T:(c) Albert Poliakoff, 2020
T:(c) Albert Poliakoff, 2020
T:(c) Albert Poliakoff, 2020
T:(c) Albert Poliakoff, 2020
C:A Poliakoff
Z:(c) Albert Poliakoff, 2020
%%score { 1 | ( 2 3 ) }
L:1/8
Q:1/4=150
M:3/4
K:Ab
V:1 bass nm="Piano" snm="Pno."
V:2 bass 
V:3 bass 
V:1
!mf! .C, | .[F,A,C] z .[F,A,C] .[F,B,D] z .[F,B,D] | %2
 .[F,A,] z/ .[G,B,]/ .[A,C][K:treble]!pp! z2 [dbd']- | [dbd']2 [dbd']2 .[=ec'].[eb] | %4
 .[fa] z/ .[gb]/ .[ac'] z2[K:bass]!mf! .G,, | .[C,E,G,] z .[C,E,G,] .[C,F,A,] z .[C,F,A,] | %6
 .[C,E,] z/ .[=D,F,]/ .[E,G,][K:treble] z2!pp! [Afa]- | [Afa]2 [cfa]2 .[=Bg].[Bf] | %8
 .[eg] z/ .[=df]/ .[ce] z2 z |"_cresc." .[cg].[fa] z/ .[eg]/.[=df] z2 | %10
!p! .[=Bf].[eg] z/ .[=df]/.[ce] z2 | .[Ge].[=df] z/ .[ce]/.[B_d] z2 | %12
!mp! .[Bd].[Be] z/ .[Bd]/.[Ac] z2 | .[Ac].[Bd] z/ .[Ac]/.[GB] z2 | %14
!mf! .[GB].[Ac] z/ .[GB]/.[FA] z2 | .[=EG].[FA] z/ .[EG]/.[=DF][Q:1/4=55] !fermata![CE]2 | %16
[Q:1/4=150] .[F,A,C]2 z4 |:[K:bass] z6 |!p! .[F,A,C] z .[F,A,C] .[F,B,D] z .[F,B,D] | z6 | %20
 .[E,A,C] z .[E,A,C] .[F,A,D] z .[F,A,D] | z6 | .[F,A,C] z .[F,A,C] .[F,B,D] z .[F,B,D] | z6 | %24
 z4 z .C, | .[F,A,C] z .[F,A,C] .[F,B,D] z .[F,B,D] | z6 | %27
 .[F,A,C] z .[F,A,C] .[F,B,D] z .[F,B,D] | .[C,E,A,] z/ .[D,G,B,]/ .[E,A,C] z2"_cresc." .C, | %29
 .[C,C] z .[C,C] .[D,D] z .[D,D] |!mp! .[C,C] z .[C,C] .[D,D] z .[D,D] |!mf! [C,C]3"_dim." [D,D]3 | %32
[K:A] [C,C]3 [D,D]3 |!p! z6 | .[E,A,C] z .[E,A,C] .[F,A,D] z .[F,A,D] | z6 | %36
 .[A,CE] z .[A,CE] .[A,DF] z .[A,DF] | .[E,A,C] z/ .[G,B,D]/ .[A,CE] z2 .E, | z6 | z6 | %40
 .[B,EG] z .[B,EG] .[B,^DF] z .[B,DF] | .[G,B,E] z .[G,B,E] .[F,B,^D] z .[F,B,D] | %42
 .[E,G,C] z .[E,G,C] .[F,A,=C] z .[F,A,C] | [E,G,C]6 |1[K:Ab] z6 | z6 | z6 :|2[K:Ab] z6 || z6 | %49
 z6 | z6 | z6 | z6 | z6 | z6 |[K:bass] .[E,A,C] z .[E,A,C] .[F,A,D] z .[F,A,D] | z6 | %57
 .[E,A,C] z .[E,A,C] .[F,A,D] z[K:treble]!pp! .d' | %58
 !arpeggio!.[d_gbd'] z .[dgbd'] .[ebd'_g'] z .[ebd'g'] | %59
 !arpeggio!.[fd'] z/ .[ae']/ .[d'f'] z2 .d' | !arpeggio!.[d_gbd'] z .[dgbd'] .[egb] z .[egb] | %61
 !arpeggio!.[fd'] z/ .[ea]/ .[df] z2 .[dfa] | !arpeggio!.[=dfa] z .[dfa] .[_cfa] z .[cfa] | %63
 !arpeggio!.[=A_g] z/ .[_ca]/ .[d=a] z2 .[d^fa] | !arpeggio!.[=eg=a] z .[ega] .[=Aga] z .[Aga] | %65
 !arpeggio!.[=eg=a] z .[ega] .[=Aga] z .[Aga] | !arpeggio!.[_eg=a] z .[ega] .[=Aga] z .[Aga] | %67
 !arpeggio!.[_eg=a] z .[ega] .[=Aga] z .[Aga] | !arpeggio![_e_g=a] z [ega] [=Aga] z [Aga] | %69
 !arpeggio![_e_ga] z [ega] [Aga] z [Aga] | !arpeggio![efa] z [efa] [Afa] z [Afa] | %71
 !arpeggio![de_g] z [deg] [_Geg] z [Geg] | !arpeggio![cdf] z [cdf] [Fdf] z [Fdf] | [FAd]6 | [DF]6 | %75
 [F,A,]6- | [F,A,]6 | z6 |!p! .[A,DF] z .[A,DF] .[B,D^F] z .[B,DF] | z6 | %80
 .[A,DF] z .[A,DF] .[B,D^F] z .[B,DF] | .[DF] z/ .[E_G]/ .[FA] z z2 | %82
"_cresc." .[DA].[_GB] z/ .[FA]/.[EG] z2 | .[E_G].[FA] z/ .[EG]/.[DF] z2 | %84
!mp! .[E_G].[FA] z/ .[GB]/.[Ac] z2 |[K:F] .[F^G].[^FA] z/ .[=G=B]/.[A^c] z2 | %86
 .[^FA].[GB] z/ .[^Gc]/.[Bd] z2 |!mf! .[GB].[^G=B] z/ .[A^c]/.[B^d] z2 | %88
 .[^G=B].[Ac] z/ .[_Bd]/.[ce] z2 |!f! .[cf].[eg] z/ .[df]/[ce][Q:1/4=60] !fermata![ce]2 | %90
[Q:1/4=150] .[Acfa]2 z4 | z6 | .[CFA] z .[CFA] .[DFB] z .[DFB] | z6 | %94
 .[CFA] z .[CFA] .[DFB] z .[DFB] | .[FA] z/ .[GB]/ .[Ac] z2 .F, |: z6 | %97
 .[CFA] z .[CFA] .[DFB] z .[DFB] | z6 | .[G,CE] z .[G,CE] .[A,CF] z[K:treble]!8va(! .f' | %100
 !arpeggio!.[fbd'f'] z .[fbd'f'] .[gd'f'b'] z .[gd'f'b'] | %101
 !arpeggio!.[af'] z/ .[c'g']/ .[f'a'] z2 .f' | !arpeggio!.[fbd'f'] z .[fbd'f'] .[gbd'] z .[gbd'] | %103
 !arpeggio!.[af'] z/ .[gc']/ .[fa] z2 .c' | !arpeggio!.[cfac'] z .[cfac'] .[ac'_e'] z .[ac'e'] | %105
 !arpeggio!.[a_e'] z/ .[ae']/ .[bd'] z2 .d' | !arpeggio!.[dg=bd'] z .[dgbd'] .[ac'f'] z .[ac'f'] | %107
 !arpeggio!.[c'f'] z/ .[=bf']/ .[c'e'] z2 .e' | %108
 !arpeggio!.[ea^c'e'] z .[eac'e'] .[c'e'g'] z .[c'e'g'] | %109
 !arpeggio!.[^c'g'] z/ .[c'g']/ .[d'f'] z2 .f' | %110
 !arpeggio!.[fac'f'] z .[fac'f'] .[c'_e'a'] z .[c'e'a'] | %111
 !arpeggio!.[c'a'] z/ .[c'a']/ .[c'g'] z2 .a' | !arpeggio!.[d'b'] z/ .[c'a']/ .[c'g'] z2 .g' | %113
 !arpeggio!.[c'a'] z/ .[c'g']/ .[c'f'] z2 .f' | !arpeggio!.[c'g'] z/ .[c'f']/ .[c'e'] z2 .f' | %115
 !arpeggio!.[ac'f']4!8va)! z f | !arpeggio!.[FBdf] z .[FBdf] .[Gdfb] z .[Gdfb] | %117
 !arpeggio!.[Af] z/ .[cg]/ .[fa] z2 .f | !arpeggio!.[FBdf] z .[FBdf] .[GBd] z .[GBd] | %119
 !arpeggio!.[Af] z/ .[Gc]/ .[FA] z2 .c | !arpeggio![FAc]6- | [FAc]6 | !arpeggio![CFA]6- | [CFA]6 :| %124
[K:bass] z6 | z6 | z6 | z6 | z6 | z6 | z6 | z6 | z6 |[K:treble] z6 | %134
 .[CFA] z .[CFA] .[DFB] z .[DFB] | [CFA]3 [DFB]3 | .[FAc] z .[FAc] .[DFB] z .[DFB] | %137
 .[FA] z/ .[EG]/ .[CF] z2 .F | .[EG] z/ .[DF]/[Q:1/4=80] !fermata![CE]4 |[Q:1/4=150] [CF]2 z4 | %140
 z6 | .[CFA] z .[CFA] .[DFB] z .[DFB] | z6 | .[FAc] z .[FAc] .[FBd] z .[FBd] | %144
 .[CFA] z/ .[EGB]/ .[FAc] z2 .[Fc] | .[Bd] z/ .[Ac]/ .[GB] z2 .[FB] | %146
 .[Ac] z/ .[GB]/ .[FA] z2 .[FA] |[Q:1/4=140]!mp!"_dim." .[CFA] z .[CFA] .[CEG] z .[CEG] | %148
[Q:1/4=130] .[A,CF] z .[A,CF] .[G,CE] z .[G,CE] |[Q:1/4=100] .[A,CF] z .[A,CF] .[B,CE] z .[B,CE] | %150
!pp![Q:1/4=70] !fermata![F,A,CF]6[Q:1/4=50] |] %151
V:2
 z | .F,, z .F,, .B,,, z .B,,, | .F,, z/ .F,,/ .F,,[K:treble] z2 [B,F]- | %3
 [B,F]2 [_G,_G]2 .[C=G] .[CG] | .[FA] z/ .[FA]/ .[FA] z2[K:bass] z | .C,, z .C,, .F,,, z .F,,, | %6
 .C,, z/ .C,,/ .C,,[K:treble] z2 [F,C]- | [F,C]2 [F,F]2 .[G,=D] .[G,D] | %8
 .[CE] z/ .[CE]/ .[CE] z2 z | .[G,C].[=DF] z/ .[CE]/.[CE] z2 | .[G,=D].[CE] z/ .[CE]/.[CE] z2 | %11
 .[G,C].[CE] z/ .[CE]/.[B,D] z2 | .[F,D].[CE] z/ .[CE]/.[CE] z2 | %13
 .[E,C].[B,D] z/ .[B,D]/.[B,D] z2 | .[D,B,].[A,C] z/ .[B,D]/.[F,C] z2 | %15
 .[=E,G,].[F,A,] z/ .[E,G,]/.[=D,F,] !fermata![C,G,]2 | .C, z .C, .D, z .D, |: %17
!p! .C, z .C, .D, z .D, | .C, z .C, .D, z .D, | .C, z .C, .D, z .D, | %20
 .[C,,C,] z .[C,,C,] .[D,,D,] z .[D,,D,] | .[C,,C,] z .[C,,C,] .[D,,D,] z .[D,,D,] | %22
 .[C,,C,] z .[C,,C,] .[D,,D,] z .[D,,D,] | .[C,,C,] z .[C,,C,] .[D,,D,] z .[D,,D,] | %24
 .[A,,,A,,] z/ .[B,,,B,,]/ .[C,,C,] z z2 | .[C,,C,] z .[C,,C,] .[D,,D,] z .[D,,D,] | %26
 .[C,,C,] z .[C,,C,] .[D,,D,] z .[D,,D,] | .[C,,C,] z .[C,,C,] .[D,,D,] z .[D,,D,] | %28
 .[A,,,A,,] z/ .[B,,,B,,]/ .[C,,C,] z2 .C,, | .[C,,,C,,] z .[C,,,C,,] .[D,,,D,,] z .[D,,,D,,] | %30
 .[C,,,C,,] z .[C,,,C,,] .[D,,,D,,] z .[D,,,D,,] | [C,,,C,,]3 [D,,,D,,]3 | %32
[K:A] [C,,,C,,]3 [D,,,D,,]3 | .[C,,C,] z .[C,,C,] .[D,,D,] z .[D,,D,] | %34
 .[C,,C,] z .[C,,C,] .[D,,D,] z .[D,,D,] | .[C,,C,] z .[C,,C,] .[D,,D,] z .[D,,D,] | %36
 .[C,,C,] z .[C,,C,] .[D,,D,] z .[D,,D,] | .[C,,C,] z/ .[D,,D,]/ .[E,,E,] z z2 | %38
 .[^D,,^D,] z .[D,,D,] .[E,,E,] z .[E,,E,] | .[G,,G,] z .[G,,G,] .[A,,A,] z .[A,,A,] | %40
 .[G,,,G,,] z .[G,,,G,,] .[A,,,A,,] z .[A,,,A,,] | %41
 .[G,,,G,,] z .[G,,,G,,] .[A,,,A,,] z .[A,,,A,,] | %42
 .[G,,,G,,] z .[G,,,G,,] .[A,,,A,,] z .[A,,,A,,] | C,6 |1[K:Ab] .[D,D] z .[D,D] .[=D,=D] z .[D,D] | %45
 [D,D]3 [C,C]3 | .C, z .C, .D, z .D, :|2[K:Ab] .[D,D] z"_cresc." .[D,D] .[C,C] z .[C,C] || %48
 .[B,,B,] z .[B,,B,] .[A,,A,] z .[A,,A,] | .[G,,G,] z .[G,,G,] .[F,,F,] z .[F,,F,] | %50
 .[=E,,=E,] z .[E,,E,] .[_E,,_E,] z .[E,,E,] | .[=D,,=D,] z .[D,,D,] .[_D,,_D,] z .[D,,D,] | %52
!mf! .[C,,C,] z/ .[C,,C,]/ .[C,,C,] z z2 | .[D,,D,] z/ .[D,,D,]/ .[D,,D,] z z2 | %54
!p! .[C,,C,] z .[C,,C,] .[D,,D,] z .[D,,D,] | .[C,,C,] z .[C,,C,] .[D,,D,] z .[D,,D,] | %56
 .[C,,C,] z .[C,,C,] .[D,,D,] z .[D,,D,] | .[C,,C,] z .[C,,C,] D,3- | D,6- | D,6 | D,6- | D,6 | %62
 D,6- | D,6 | D,6- | D,6 | D,6- | D,6 | D,6- | D,6 | D,6- | D,6 | D,6- | D,6 | D,6- | D,6- | D,6 | %77
!p! .[F,,F,] z .[F,,F,] .[^F,,^F,] z .[F,,F,] | .[F,,F,] z .[F,,F,] .[^F,,^F,] z .[F,,F,] | %79
 .[F,,F,] z .[F,,F,] .[^F,,^F,] z .[F,,F,] | .[F,,F,] z .[F,,F,] .[^F,,^F,] z .[F,,F,] | %81
 .[D,,D,] z/ .[E,,E,]/ .[F,,F,] z z2 | .[D,A,].[_G,B,] z/ .[F,A,]/.[E,G,] z2 | %83
 .[E,_G,].[F,A,] z/ .[E,G,]/.[D,F,] z2 | .[E,_G,].[F,A,] z/ .[G,B,]/.[A,C] z2 | %85
[K:F] .[F,^G,].[^F,A,] z/ .[=G,=B,]/.[A,^C] z2 | .[^F,A,].[G,B,] z/ .[^G,C]/.[B,D] z2 | %87
 .[G,B,].[^G,=B,] z/ .[A,^C]/.[A,^D] z2 | .[^G,=B,].[A,C] z/ .[_B,D]/.[B,E] z2 | %89
 .[CF].[EG] z/ .[DF]/[CE] !fermata![CE]2 | .[A,,A,] z .[A,,A,] .[B,,B,] z .[B,,B,] | %91
!p! .[A,,A,] z .[A,,A,] .[B,,B,] z .[B,,B,] | .[A,,A,] z .[A,,A,] .[B,,B,] z .[B,,B,] | %93
 .[A,,A,] z .[A,,A,] .[B,,B,] z .[B,,B,] | .[A,,A,] z .[A,,A,] .[B,,B,] z .[B,,B,] | %95
 .[F,,F,] z/ .[G,,G,]/ .[A,,A,] z z2 |: .[A,,A,] z .[A,,A,] .[B,,B,] z .[B,,B,] | %97
 .[A,,A,] z .[A,,A,] .[B,,B,] z .[B,,B,] | .[A,,A,] z .[A,,A,] .[B,,B,] z .[B,,B,] | %99
 .[E,,E,] z .[E,,E,] F,3- | F,6- | F,6 | F,6- | F,6 | F,6- | F,6 | F,6- | F,6 | F,6- | F,6 | F,6- | %111
 F,6 | F,6- | F,6 | F,6- | F,6 | F,6- | F,6 | F,6- | F,6 | F,6- | F,6 | F,6- | F,6 :| %124
!mp! .[C,C] z .[C,C] .[B,,B,] z .[B,,B,] | .[A,,A,] z .[A,,A,] .[G,,G,] z .[G,,G,] | %126
 .[F,,F,] z .[F,,F,] .[E,,E,] z .[E,,E,] | .[F,,F,] z/ .[F,,F,]/ .[F,,F,] z z2 | %128
 .[G,,G,] z/ .[G,,G,]/ .[G,,G,] z z2 | .[A,,A,] z/ .[A,,A,]/ .[A,,A,] z z2 | %130
 .[B,,B,] z/ .[B,,B,]/ .[B,,B,] z z2 | .[A,,A,] z .[A,,A,] .[B,,B,] z .[B,,B,] | %132
 [A,,A,]3 [B,,B,]3 | .[A,,A,] z .[A,,A,] .[B,,B,] z .[B,,B,] | %134
 .[A,,A,] z .[A,,A,] .[B,,B,] z .[B,,B,] | [A,,A,]3 [B,,B,]3 | %136
 .[C,C] z .[C,C] .[B,,B,] z .[B,,B,] | .[A,,A,] z/ .[G,,G,]/ .[F,,F,] z2 .[F,,F,] | %138
 .[G,,G,] z/ .[F,,F,]/ !fermata![E,,E,]4 | .[A,,A,] z .[A,,A,] .[B,,B,] z .[B,,B,] | %140
 .[A,,A,] z .[A,,A,] .[B,,B,] z .[B,,B,] | .[A,,A,] z .[A,,A,] .[B,,B,] z .[B,,B,] | %142
 .[A,,A,] z .[A,,A,] .[B,,B,] z .[B,,B,] | .[A,,A,] z .[A,,A,] .[B,,B,] z .[B,,B,] | %144
 .[A,,A,] z/ .[B,,B,]/ .[C,C] z2 .[C,,C,] | .[D,,D,] z/ .[C,,C,]/ .[B,,,B,,] z2 .[B,,,B,,] | %146
 .[C,,C,] z/ .[B,,,B,,]/ .[A,,,A,,] z2 .[A,,,A,,] | %147
 .[A,,,A,,] z .[A,,,A,,] .[B,,,B,,] z .[B,,,B,,] | %148
 .[A,,,A,,] z .[A,,,A,,] .[B,,,B,,] z .[B,,,B,,] | %149
 .[A,,,A,,] z .[A,,,A,,] .[B,,,B,,] z .[B,,,B,,] | F,,6 |] %151
V:3
 x | x6 | x3[K:treble] x3 | x6 | x5[K:bass] x | x6 | x3[K:treble] x3 | x6 | x6 | x6 | x6 | x6 | %12
 x6 | x6 | x6 | x6 | x6 |: x6 | x6 | x6 | x6 | x6 | x6 | x6 | x6 | x6 | x6 | x6 | x6 | x6 | x6 | %31
 x6 |[K:A] x6 | x6 | x6 | x6 | x6 | x6 | x6 | x6 | x6 | x6 | x6 | x3 C,,3 |1[K:Ab] x6 | x6 | x6 :|2 %47
[K:Ab] x6 || x6 | x6 | x6 | x6 | x6 | x6 | x6 | x6 | x6 | x3 .D,, x2 | .MD,, z2 .MD,, z2 | %59
 .MD,, z2 .MD,, z2 | .MD,, z2 .MD,, z2 | .MD,, z2 .MD,, z2 | .MD,, z2 .MD,, z2 | %63
 .MD,, z2 .MD,, z2 | .MD,, z2 .MD,, z2 | .MD,, z2 .MD,, z2 | .MD,, z2 .MD,, z2 | %67
 .MD,, z2 .MD,, z2 | .MD,, z2 .MD,, z2 | .MD,, z2 .MD,, z2 | .MD,, z2 .MD,, z2 | %71
 .MD,, z2 .MD,, z2 | .MD,, z2 .MD,, z2 | .MD,, z2 .MD,, z2 | .MD,, z2 .MD,, z2 | %75
 .MD,, z2 .MD,, z2 | .MD,, z2 .MD,, z2 | x6 | x6 | x6 | x6 | x6 | x6 | x6 | x6 |[K:F] x6 | x6 | %87
 x6 | x6 | x6 | x6 | x6 | x6 | x6 | x6 | x6 |: x6 | x6 | x6 | x3 .F,, x2 | .MF,, z2 .MF,, z2 | %101
 .MF,, z2 .MF,, z2 | .MF,, z2 .MF,, z2 | .MF,, z2 .MF,, z2 | .MF,, z2 .MF,, z2 | %105
 .MF,, z2 .MF,, z2 | .MF,, z2 .MF,, z2 | .MF,, z2 .MF,, z2 | .MF,, z2 .MF,, z2 | %109
 .MF,, z2 .MF,, z2 | .MF,, z2 .MF,, z2 | .MF,, z2 .MF,, z2 | .MF,, z2 .MF,, z2 | %113
 .MF,, z2 .MF,, z2 | .MF,, z2 .MF,, z2 | .MF,, z2 .MF,, z2 | .MF,, z2 .MF,, z2 | %117
 .MF,, z2 .MF,, z2 | .MF,, z2 .MF,, z2 | .MF,, z2 .MF,, z2 | .MF,, z2 .MF,, z2 | %121
 .MF,, z2 .MF,, z2 | .MF,, z2 .MF,, z2 | .MF,, z2 .MF,, z2 :| x6 | x6 | x6 | x6 | x6 | x6 | x6 | %131
 x6 | x6 | x6 | x6 | x6 | x6 | x6 | x6 | x6 | x6 | x6 | x6 | x6 | x6 | x6 | x6 | x6 | x6 | x6 | %150
 x3 !fermata!F,,,3 |] %151

